icons/48x48/apps/amazon-store.svg

<svg xmlns="http://www.w3.org/2000/svg" width="48" height="48" version="1">
 <rect fill="#3f5979" width="40" height="40" x="-44" y="-44" rx="2" ry="2" transform="matrix(0,-1,-1,0,0,0)"/>
 <path fill="#fff" opacity=".1" d="m6 4c-1.108 0-2 0.892-2 2v1c0-1.108 0.892-2 2-2h36c1.108 0 2 0.892 2 2v-1c0-1.108-0.892-2-2-2h-36z"/>
 <path opacity=".2" d="m6 45c-1.108 0-2-0.892-2-2v-1c0 1.108 0.892 2 2 2h36c1.108 0 2-0.892 2-2v1c0 1.108-0.892 2-2 2h-36z"/>
 <g fill-rule="evenodd" opacity=".2" transform="translate(0,1)">
  <path d="m25.861 22.175c0 1.367 0.035 2.504-0.625 3.715-0.531 0.984-1.375 1.59-2.316 1.59-1.285 0-2.031-1.023-2.031-2.535 0-2.984 2.555-3.527 4.973-3.527v0.758m3.375 8.531c-0.219 0.207-0.539 0.223-0.789 0.086-1.109-0.965-1.309-1.414-1.922-2.336-1.836 1.961-3.133 2.547-5.516 2.547-2.816 0-5.01-1.816-5.01-5.453 0-2.84 1.473-4.777 3.566-5.723 1.813-0.836 4.352-0.984 6.293-1.215v-0.453c0-0.832 0.063-1.816-0.402-2.535-0.41-0.645-1.191-0.91-1.879-0.91-1.277 0-2.414 0.684-2.691 2.102-0.059 0.316-0.277 0.625-0.582 0.641l-3.246-0.363c-0.273-0.066-0.574-0.297-0.5-0.734 0.75-4.109 4.305-5.352 7.484-5.352 1.629 0 3.758 0.453 5.04 1.742 1.629 1.59 1.473 3.711 1.473 6.02v5.453c0 1.641 0.648 2.359 1.262 3.246 0.215 0.313 0.262 0.695-0.008 0.93-0.684 0.602-1.898 1.703-2.566 2.324l-0.012-0.012"/>
  <path d="m35.092 30.998c-0.90962 0.01312-1.9844 0.22259-2.7969 0.80859-0.254 0.18-0.21069 0.42953 0.07031 0.39453 0.914-0.114 2.9573-0.36372 3.3203 0.11328 0.367 0.476-0.40609 2.4452-0.74609 3.3242-0.105 0.266 0.11756 0.37488 0.35156 0.17188 1.531-1.308 1.9224-4.0503 1.6094-4.4453-0.154-0.1975-0.89897-0.38031-1.8086-0.36719zm-23.902 0.527c-0.18975 0.02545-0.27372 0.26081-0.07422 0.44531 3.393 3.144 7.879 5.03 12.859 5.03 3.554 0 7.677-1.149 10.525-3.297l0.002-0.0039c0.473-0.36 0.06994-0.89059-0.41406-0.68359-3.188 1.391-6.6605 2.0586-9.8125 2.0586-4.676 0-9.2072-1.3121-12.867-3.4961-0.08-0.04775-0.1555-0.06122-0.21875-0.05273z"/>
 </g>
 <g fill-rule="evenodd">
  <path fill="#fff" d="m25.861 22.175c0 1.367 0.035 2.504-0.625 3.715-0.531 0.984-1.375 1.59-2.316 1.59-1.285 0-2.031-1.023-2.031-2.535 0-2.984 2.555-3.527 4.973-3.527v0.758m3.375 8.531c-0.219 0.207-0.539 0.223-0.789 0.086-1.109-0.965-1.309-1.414-1.922-2.336-1.836 1.961-3.133 2.547-5.516 2.547-2.816 0-5.01-1.816-5.01-5.453 0-2.84 1.473-4.777 3.566-5.723 1.813-0.836 4.352-0.984 6.293-1.215v-0.453c0-0.832 0.063-1.816-0.402-2.535-0.41-0.645-1.191-0.91-1.879-0.91-1.277 0-2.414 0.684-2.691 2.102-0.059 0.316-0.277 0.625-0.582 0.641l-3.246-0.363c-0.273-0.066-0.574-0.297-0.5-0.734 0.75-4.109 4.305-5.352 7.484-5.352 1.629 0 3.758 0.453 5.04 1.742 1.629 1.59 1.473 3.711 1.473 6.02v5.453c0 1.641 0.648 2.359 1.262 3.246 0.215 0.313 0.262 0.695-0.008 0.93-0.684 0.602-1.898 1.703-2.566 2.324l-0.012-0.012"/>
  <path fill="#f90" d="m35.092 30.998c-0.91 0.013-1.985 0.223-2.797 0.809-0.254 0.18-0.211 0.429 0.07 0.394 0.914-0.114 2.958-0.364 3.321 0.113 0.367 0.476-0.407 2.446-0.747 3.325-0.105 0.266 0.118 0.375 0.352 0.172 1.531-1.308 1.922-4.051 1.609-4.446-0.154-0.197-0.899-0.38-1.808-0.367zm-23.903 0.527c-0.189 0.026-0.273 0.261-0.074 0.446 3.394 3.143 7.88 5.029 12.86 5.029 3.554 0 7.677-1.149 10.525-3.297l0.002-0.004c0.473-0.36 0.07-0.89-0.414-0.683-3.188 1.391-6.661 2.058-9.813 2.058-4.676 0-9.207-1.312-12.867-3.496-0.08-0.048-0.155-0.061-0.219-0.053z"/>
 </g>
</svg>

<svg xmlns="http://www.w3.org/2000/svg" width="48" height="48" version="1">
 <rect style="opacity:0.2" width="40" height="40" x="4" y="5" rx="2" ry="2"/>
 <rect fill="#3f5979" width="40" height="40" x="4" y="4" rx="2" ry="2"/>
 <path fill="#fff" opacity=".1" d="m6 4c-1.108 0-2 0.892-2 2v1c0-1.108 0.892-2 2-2h36c1.108 0 2 0.892 2 2v-1c0-1.108-0.892-2-2-2h-36z"/>
 <path style="fill-rule:evenodd;opacity:0.2" d="M 25.861,23.175 C 25.861,24.542 25.896,25.679 25.236,26.89 24.705,27.874 23.861,28.48 22.92,28.48 21.635,28.48 20.889,27.457 20.889,25.945 20.889,22.961 23.444,22.418 25.862,22.418 V 23.176 M 29.237,31.707 C 29.018,31.914 28.698,31.93 28.448,31.793 27.339,30.828 27.139,30.379 26.526,29.457 24.69,31.418 23.393,32.004 21.01,32.004 18.194,32.004 16,30.188 16,26.551 16,23.711 17.473,21.774 19.566,20.828 21.379,19.992 23.918,19.844 25.859,19.613 V 19.16 C 25.859,18.328 25.922,17.344 25.457,16.625 25.047,15.98 24.266,15.715 23.578,15.715 22.301,15.715 21.164,16.399 20.887,17.817 20.828,18.133 20.61,18.442 20.305,18.458 L 17.059,18.095 C 16.786,18.029 16.485,17.798 16.559,17.361 17.309,13.252 20.864,12.009 24.043,12.009 25.672,12.009 27.801,12.462 29.083,13.751 30.712,15.341 30.556,17.462 30.556,19.771 V 25.224 C 30.556,26.865 31.204,27.583 31.818,28.47 32.033,28.783 32.08,29.165 31.81,29.4 31.126,30.002 29.912,31.103 29.244,31.724 L 29.232,31.712"/>
 <path style="fill:#ffffff;fill-rule:evenodd" d="M 25.861,22.175 C 25.861,23.542 25.896,24.679 25.236,25.89 24.705,26.874 23.861,27.48 22.92,27.48 21.635,27.48 20.889,26.457 20.889,24.945 20.889,21.961 23.444,21.418 25.862,21.418 V 22.176 M 29.237,30.707 C 29.018,30.914 28.698,30.93 28.448,30.793 27.339,29.828 27.139,29.379 26.526,28.457 24.69,30.418 23.393,31.004 21.01,31.004 18.194,31.004 16,29.188 16,25.551 16,22.711 17.473,20.774 19.566,19.828 21.379,18.992 23.918,18.844 25.859,18.613 V 18.16 C 25.859,17.328 25.922,16.344 25.457,15.625 25.047,14.98 24.266,14.715 23.578,14.715 22.301,14.715 21.164,15.399 20.887,16.817 20.828,17.133 20.61,17.442 20.305,17.458 L 17.059,17.095 C 16.786,17.029 16.485,16.798 16.559,16.361 17.309,12.252 20.864,11.009 24.043,11.009 25.672,11.009 27.801,11.462 29.083,12.751 30.712,14.341 30.556,16.462 30.556,18.771 V 24.224 C 30.556,25.865 31.204,26.583 31.818,27.47 32.033,27.783 32.08,28.165 31.81,28.4 31.126,29.002 29.912,30.103 29.244,30.724 L 29.232,30.712"/>
 <path style="opacity:0.2" d="M 35.092,31.998 C 34.182,32.011 33.107,32.221 32.295,32.807 32.041,32.987 32.084,33.236 32.365,33.201 33.279,33.087 35.323,32.837 35.686,33.314 36.053,33.79 35.279,35.76 34.939,36.639 34.834,36.905 35.057,37.014 35.291,36.811 36.822,35.503 37.213,32.76 36.9,32.365 36.746,32.168 36.001,31.985 35.092,31.998 Z M 11.189,32.525 C 11,32.551 10.916,32.786 11.115,32.971 14.509,36.114 18.995,38 23.975,38 27.529,38 31.652,36.851 34.5,34.703 L 34.502,34.699 C 34.975,34.339 34.572,33.809 34.088,34.016 30.9,35.407 27.427,36.074 24.275,36.074 19.599,36.074 15.068,34.762 11.408,32.578 11.328,32.53 11.253,32.517 11.189,32.525 Z"/>
 <path style="fill:#ff9900" d="M 35.092,30.998 C 34.182,31.011 33.107,31.221 32.295,31.807 32.041,31.987 32.084,32.236 32.365,32.201 33.279,32.087 35.323,31.837 35.686,32.314 36.053,32.79 35.279,34.76 34.939,35.639 34.834,35.905 35.057,36.014 35.291,35.811 36.822,34.503 37.213,31.76 36.9,31.365 36.746,31.168 36.001,30.985 35.092,30.998 Z M 11.189,31.525 C 11,31.551 10.916,31.786 11.115,31.971 14.509,35.114 18.995,37 23.975,37 27.529,37 31.652,35.851 34.5,33.703 L 34.502,33.699 C 34.975,33.339 34.572,32.809 34.088,33.016 30.9,34.407 27.427,35.074 24.275,35.074 19.599,35.074 15.068,33.762 11.408,31.578 11.328,31.53 11.253,31.517 11.189,31.525 Z"/>
</svg>
